Dominus_Dark_Funeral/scalable/apps/vk.svg

<svg xmlns="http://www.w3.org/2000/svg" xmlns:xlink="http://www.w3.org/1999/xlink" width="48" height="48" viewBox="0 0 12.7 12.7"><defs><linearGradient id="b"><stop offset="0" stop-color="#80b3ff"/><stop offset="1" stop-color="#507299"/></linearGradient><linearGradient id="a"><stop offset="0"/><stop offset="1" stop-opacity="0"/></linearGradient><linearGradient xlink:href="#b" id="c" x1="6.33" y1="6.87" x2="11.69" y2="6.35" gradientUnits="userSpaceOnUse"/><linearGradient xlink:href="#a" id="d" gradientUnits="userSpaceOnUse" x1="-.283" y1="3.04" x2="12.474" y2="7.589"/></defs><path d="M6.35.1C4.81.1 3.57.39 2.66.97A3.67 3.67 0 0 0 1 4.22c0 1.91 1.54 4.47 2.01 5.2.54.85 1.13 1.61 1.65 2.16.68.7 1.21 1.03 1.69 1.03s1.01-.33 1.69-1.03a15.2 15.2 0 0 0 1.65-2.15c.47-.74 2-3.3 2-5.21 0-1.42-.57-2.54-1.65-3.25A6.75 6.75 0 0 0 6.35.09z" fill="url(#c)"/><path d="M8.457 11.118a15.2 15.2 0 0 0 .555-.666 15.2 15.2 0 0 0 .678-.982c.235-.37.735-1.195 1.176-2.166.22-.486.427-1.008.578-1.528.075-.26.08-.502.123-.756L9.823 3.277 8.002 4.59 6.58 3.168l-.812.081-1.05.075.772.772-.02.968-1.76-1.76.4 3.466z" fill="url(#d)" opacity=".5"/><path d="M5.91 7.54h.47s.13-.02.2-.1c.07-.07.07-.2.07-.2s-.01-.65.28-.74c.28-.1.64.62 1.03.9.29.2.51.16.51.16l1.03-.02s.54-.03.28-.47c-.02-.04-.14-.33-.76-.92-.65-.62-.56-.52.22-1.6.47-.65.66-1.05.6-1.22-.06-.16-.4-.12-.4-.12H8.28s-.09 0-.15.04c-.07.03-.1.13-.1.13s-.19.5-.43.93c-.52.91-.73.96-.81.9-.2-.13-.15-.53-.15-.8 0-.89.13-1.26-.25-1.35A1.92 1.92 0 0 0 5.85 3c-.41 0-.76 0-.96.1-.14.07-.24.22-.17.23.07.01.25.05.34.18.12.17.11.54.11.54s.07 1.04-.16 1.17c-.15.09-.37-.1-.83-.92-.23-.42-.41-.89-.41-.89s-.04-.08-.1-.13c-.07-.06-.18-.08-.18-.08l-1.1.01s-.16 0-.22.08c-.06.07 0 .2 0 .2S3.02 5.59 4 6.64c.9.96 1.91.9 1.91.9" fill="#fff" fill-rule="evenodd"/><path d="M6.35.1C4.81.1 3.57.39 2.66.97A3.67 3.67 0 0 0 1 4.22c0 1.91 1.54 4.47 2.01 5.2.54.85 1.13 1.61 1.65 2.16.68.7 1.21 1.03 1.69 1.03s1.01-.33 1.69-1.03a15.2 15.2 0 0 0 1.65-2.15c.47-.74 2-3.3 2-5.21 0-1.42-.57-2.54-1.65-3.25A6.75 6.75 0 0 0 6.35.09zm0 .03C6.91.15 7.44.2 7.9.31a5.82 5.82 0 0 1 1.6.66 3.65 3.65 0 0 1 1.24 1.36c.14.27.25.57.32.88a4.61 4.61 0 0 1-.14 2.53c-.15.52-.36 1.04-.58 1.52-.44.97-.95 1.8-1.18 2.17a15.2 15.2 0 0 1-1.65 2.15 4.9 4.9 0 0 1-.92.78.96.96 0 0 1-.24.1.96.96 0 0 1-.24-.1 4.76 4.76 0 0 1-.92-.78 14.41 14.41 0 0 1-1.65-2.15 19.2 19.2 0 0 1-1.18-2.17c-.22-.48-.43-1-.58-1.52a4.6 4.6 0 0 1-.14-2.52 3.73 3.73 0 0 1 .84-1.64 3.65 3.65 0 0 1 1.45-1A6.83 6.83 0 0 1 6.35.13z" opacity=".2"/></svg>

<?xml version="1.0" encoding="UTF-8" standalone="no"?>
<svg
   xmlns:dc="http://purl.org/dc/elements/1.1/"
   xmlns:cc="http://creativecommons.org/ns#"
   xmlns:rdf="http://www.w3.org/1999/02/22-rdf-syntax-ns#"
   xmlns:svg="http://www.w3.org/2000/svg"
   xmlns="http://www.w3.org/2000/svg"
   xmlns:xlink="http://www.w3.org/1999/xlink"
   xmlns:sodipodi="http://sodipodi.sourceforge.net/DTD/sodipodi-0.dtd"
   xmlns:inkscape="http://www.inkscape.org/namespaces/inkscape"
   width="48"
   height="48"
   viewBox="0 0 12.7 12.7"
   version="1.1"
   id="svg24"
   sodipodi:docname="vk.svg"
   inkscape:version="0.92.4 (5da689c313, 2019-01-14)">
  <metadata
     id="metadata28">
    <rdf:RDF>
      <cc:Work
         rdf:about="">
        <dc:format>image/svg+xml</dc:format>
        <dc:type
           rdf:resource="http://purl.org/dc/dcmitype/StillImage" />
        <dc:title></dc:title>
      </cc:Work>
    </rdf:RDF>
  </metadata>
  <sodipodi:namedview
     pagecolor="#ffffff"
     bordercolor="#666666"
     borderopacity="1"
     objecttolerance="10"
     gridtolerance="10"
     guidetolerance="10"
     inkscape:pageopacity="0"
     inkscape:pageshadow="2"
     inkscape:window-width="1112"
     inkscape:window-height="480"
     id="namedview26"
     showgrid="false"
     inkscape:zoom="4.9166667"
     inkscape:cx="2.1355932"
     inkscape:cy="24"
     inkscape:window-x="0"
     inkscape:window-y="25"
     inkscape:window-maximized="0"
     inkscape:current-layer="svg24" />
  <defs
     id="defs14">
    <linearGradient
       id="b">
      <stop
         offset="0"
         stop-color="#80b3ff"
         id="stop2" />
      <stop
         offset="1"
         stop-color="#507299"
         id="stop4" />
    </linearGradient>
    <linearGradient
       id="a">
      <stop
         offset="0"
         id="stop7" />
      <stop
         offset="1"
         stop-opacity="0"
         id="stop9" />
    </linearGradient>
    <linearGradient
       xlink:href="#b"
       id="c"
       x1="6.33"
       y1="6.87"
       x2="11.69"
       y2="6.35"
       gradientUnits="userSpaceOnUse" />
    <linearGradient
       xlink:href="#a"
       id="d"
       gradientUnits="userSpaceOnUse"
       x1="-.283"
       y1="3.04"
       x2="12.474"
       y2="7.589" />
  </defs>
  <path
     d="M 6.35,0.1 C 4.81,0.1 3.57,0.39 2.66,0.97 A 3.67,3.67 0 0 0 1,4.22 c 0,1.91 1.54,4.47 2.01,5.2 0.54,0.85 1.13,1.61 1.65,2.16 0.68,0.7 1.21,1.03 1.69,1.03 0.48,0 1.01,-0.33 1.69,-1.03 A 15.2,15.2 0 0 0 9.69,9.43 c 0.47,-0.74 2,-3.3 2,-5.21 0,-1.42 -0.57,-2.54 -1.65,-3.25 A 6.75,6.75 0 0 0 6.35,0.09 Z"
     id="path16"
     style="fill:url(#c)"
     inkscape:connector-curvature="0" />
  <path
     d="M 8.457,11.118 A 15.2,15.2 0 0 0 9.012,10.452 15.2,15.2 0 0 0 9.69,9.47 C 9.925,9.1 10.425,8.275 10.866,7.304 11.086,6.818 11.293,6.296 11.444,5.776 11.519,5.516 11.524,5.274 11.567,5.02 L 9.823,3.277 8.002,4.59 6.58,3.168 5.768,3.249 4.718,3.324 5.49,4.096 5.47,5.064 3.71,3.304 4.11,6.77 Z"
     id="path18"
     style="opacity:0.5;fill:url(#d)"
     inkscape:connector-curvature="0" />
  <path
     d="m 5.91,7.54 h 0.47 c 0,0 0.13,-0.02 0.2,-0.1 0.07,-0.07 0.07,-0.2 0.07,-0.2 0,0 -0.01,-0.65 0.28,-0.74 0.28,-0.1 0.64,0.62 1.03,0.9 0.29,0.2 0.51,0.16 0.51,0.16 L 9.5,7.54 c 0,0 0.54,-0.03 0.28,-0.47 C 9.76,7.03 9.64,6.74 9.02,6.15 8.37,5.53 8.46,5.63 9.24,4.55 9.71,3.9 9.9,3.5 9.84,3.33 9.78,3.17 9.44,3.21 9.44,3.21 H 8.28 c 0,0 -0.09,0 -0.15,0.04 -0.07,0.03 -0.1,0.13 -0.1,0.13 0,0 -0.19,0.5 -0.43,0.93 C 7.08,5.22 6.87,5.27 6.79,5.21 6.59,5.08 6.64,4.68 6.64,4.41 6.64,3.52 6.77,3.15 6.39,3.06 A 1.92,1.92 0 0 0 5.85,3 C 5.44,3 5.09,3 4.89,3.1 4.75,3.17 4.65,3.32 4.72,3.33 c 0.07,0.01 0.25,0.05 0.34,0.18 0.12,0.17 0.11,0.54 0.11,0.54 0,0 0.07,1.04 -0.16,1.17 C 4.86,5.31 4.64,5.12 4.18,4.3 3.95,3.88 3.77,3.41 3.77,3.41 3.77,3.41 3.73,3.33 3.67,3.28 3.6,3.22 3.49,3.2 3.49,3.2 l -1.1,0.01 c 0,0 -0.16,0 -0.22,0.08 -0.06,0.07 0,0.2 0,0.2 0,0 0.85,2.1 1.83,3.15 0.9,0.96 1.91,0.9 1.91,0.9"
     id="path20"
     inkscape:connector-curvature="0"
     style="fill:#ffffff;fill-rule:evenodd" />
  <path
     d="M 6.35,0.1 C 4.81,0.1 3.57,0.39 2.66,0.97 A 3.67,3.67 0 0 0 1,4.22 c 0,1.91 1.54,4.47 2.01,5.2 0.54,0.85 1.13,1.61 1.65,2.16 0.68,0.7 1.21,1.03 1.69,1.03 0.48,0 1.01,-0.33 1.69,-1.03 A 15.2,15.2 0 0 0 9.69,9.43 c 0.47,-0.74 2,-3.3 2,-5.21 0,-1.42 -0.57,-2.54 -1.65,-3.25 A 6.75,6.75 0 0 0 6.35,0.09 Z m 0,0.03 C 6.91,0.15 7.44,0.2 7.9,0.31 a 5.82,5.82 0 0 1 1.6,0.66 3.65,3.65 0 0 1 1.24,1.36 c 0.14,0.27 0.25,0.57 0.32,0.88 A 4.61,4.61 0 0 1 10.92,5.74 C 10.77,6.26 10.56,6.78 10.34,7.26 9.9,8.23 9.39,9.06 9.16,9.43 A 15.2,15.2 0 0 1 7.51,11.58 4.9,4.9 0 0 1 6.59,12.36 0.96,0.96 0 0 1 6.35,12.46 0.96,0.96 0 0 1 6.11,12.36 4.76,4.76 0 0 1 5.19,11.58 14.41,14.41 0 0 1 3.54,9.43 19.2,19.2 0 0 1 2.36,7.26 C 2.14,6.78 1.93,6.26 1.78,5.74 A 4.6,4.6 0 0 1 1.64,3.22 3.73,3.73 0 0 1 2.48,1.58 3.65,3.65 0 0 1 3.93,0.58 6.83,6.83 0 0 1 6.35,0.13 Z"
     id="path22"
     inkscape:connector-curvature="0"
     style="opacity:0.2" />
</svg>
